events/images/summer_school.svg

<?xml version="1.0" encoding="UTF-8" standalone="no"?>
<svg
   width="492"
   height="491"
   overflow="hidden"
   version="1.1"
   id="svg16"
   sodipodi:docname="summer_school.svg"
   inkscape:version="1.4.3 (0d15f75, 2025-12-25)"
   xmlns:inkscape="http://www.inkscape.org/namespaces/inkscape"
   xmlns:sodipodi="http://sodipodi.sourceforge.net/DTD/sodipodi-0.dtd"
   xmlns="http://www.w3.org/2000/svg"
   xmlns:svg="http://www.w3.org/2000/svg">
  <defs
     id="defs16" />
  <sodipodi:namedview
     id="namedview16"
     pagecolor="#ffffff"
     bordercolor="#000000"
     borderopacity="0.25"
     inkscape:showpageshadow="2"
     inkscape:pageopacity="0.0"
     inkscape:pagecheckerboard="0"
     inkscape:deskcolor="#d1d1d1"
     inkscape:zoom="0.6875"
     inkscape:cx="245.81818"
     inkscape:cy="246.54545"
     inkscape:window-width="1024"
     inkscape:window-height="1186"
     inkscape:window-x="0"
     inkscape:window-y="25"
     inkscape:window-maximized="0"
     inkscape:current-layer="svg16" />
  <g
     id="g16"
     transform="translate(-394,-113)">
    <path
       d="M 394,268.726 C 394,182.721 463.721,113 549.726,113 H 730.274 C 816.279,113 886,182.721 886,268.726 V 448.274 C 886,534.279 816.279,604 730.274,604 H 549.726 C 463.721,604 394,534.279 394,448.274 Z"
       fill="#fceebd"
       fill-rule="evenodd"
       id="path1" />
    <g
       id="g12">
      <g
         id="g11">
        <g
           id="g10">
          <path
             d="m 83.654,150.915 c 0.0142,-2.663 0.1862,-5.323 0.5159,-7.965 H 41.6068 v 15.729 h 42.5317 c -0.3112,-2.576 -0.4729,-5.169 -0.4845,-7.764 z"
             fill="#00883a"
             transform="matrix(1,0,0,1.00331,404,127)"
             id="path2" />
          <path
             d="m 151.019,83.5502 c 2.629,0.0123 5.255,0.179 7.864,0.5002 V 41.4023 h -15.729 v 42.6481 c 2.61,-0.3212 5.236,-0.4883 7.865,-0.5002 z"
             fill="#00883a"
             transform="matrix(1,0,0,1.00331,404,127)"
             id="path3" />
          <path
             d="m 203.787,109.16 30.159,-30.1555 -11.12,-11.1174 -30.175,30.1717 c 4.129,3.2562 7.867,6.9822 11.136,11.1012 z"
             fill="#00883a"
             transform="matrix(1,0,0,1.00331,404,127)"
             id="path4" />
          <path
             d="M 109.387,98.0588 79.2152,67.8871 68.0947,79.0076 98.2507,109.16 c 3.2693,-4.119 7.0063,-7.845 11.1363,-11.1012 z"
             fill="#00883a"
             transform="matrix(1,0,0,1.00331,404,127)"
             id="path5" />
          <path
             d="m 192.767,203.686 30.059,30.049 11.12,-11.123 -30.071,-30.071 c -3.258,4.133 -6.986,7.873 -11.108,11.145 z"
             fill="#00883a"
             transform="matrix(1,0,0,1.00331,404,127)"
             id="path6" />
          <path
             d="m 217.868,142.95 c 0.677,5.22 0.688,10.506 0.031,15.729 h 42.532 V 142.95 Z"
             fill="#00883a"
             transform="matrix(1,0,0,1.00331,404,127)"
             id="path7" />
          <path
             d="m 151.019,218.283 c -2.629,-0.013 -5.255,-0.181 -7.865,-0.5 v 42.443 h 15.729 v -42.443 c -2.609,0.319 -5.235,0.486 -7.864,0.5 z"
             fill="#00883a"
             transform="matrix(1,0,0,1.00331,404,127)"
             id="path8" />
          <path
             d="m 98.15,192.55 -30.0679,30.068 11.1331,11.117 30.0518,-30.052 c -4.123,-3.269 -7.854,-7.005 -11.117,-11.133 z"
             fill="#00883a"
             transform="matrix(1,0,0,1.00331,404,127)"
             id="path9" />
          <path
             d="m 205.8,150.915 c 0,30.255 -24.526,54.782 -54.781,54.782 -30.255,0 -54.7817,-24.527 -54.7817,-54.782 0,-30.255 24.5267,-54.7815 54.7817,-54.7815 30.255,0 54.781,24.5265 54.781,54.7815 z"
             fill="#00883a"
             transform="matrix(1,0,0,1.00331,404,127)"
             id="path10" />
        </g>
      </g>
    </g>
    <g
       id="g15">
      <g
         id="g14">
        <g
           id="g13">
          <path
             d="m 62.9167,155.09 v 36.806 c 0,17.302 39.3233,34.604 88.0833,34.604 48.76,0 88.083,-17.302 88.083,-34.604 V 155.09 L 151,186.233 Z"
             fill="#00883a"
             transform="matrix(1.00331,0,0,1,564,305)"
             id="path12" />
          <path
             d="M 151,172.706 288.158,124.575 151,75.5 13.8417,124.575 l 17.6166,6.292 v 57.883 c 0,3.46 2.8313,6.292 6.2917,6.292 3.4604,0 6.2917,-2.832 6.2917,-6.292 v -53.479 z"
             fill="#00883a"
             transform="matrix(1.00331,0,0,1,564,305)"
             id="path13" />
        </g>
      </g>
    </g>
  </g>
</svg>

<svg width="1280" height="720" xmlns="http://www.w3.org/2000/svg" xmlns:xlink="http://www.w3.org/1999/xlink" overflow="hidden"><g><rect x="0" y="0" width="1280" height="720" fill="#FFFFFF"/><path d="M394 268.726C394 182.721 463.721 113 549.726 113L730.274 113C816.279 113 886 182.721 886 268.726L886 448.274C886 534.279 816.279 604 730.274 604L549.726 604C463.721 604 394 534.279 394 448.274Z" fill="#FCEEBD" fill-rule="evenodd"/><g><g><g><path d="M83.654 150.915C83.6682 148.252 83.8402 145.592 84.1699 142.95L41.6068 142.95 41.6068 158.679 84.1385 158.679C83.8273 156.103 83.6656 153.51 83.654 150.915Z" fill="#00883A" transform="matrix(1 0 0 1.00331 404 127)"/><path d="M151.019 83.5502C153.648 83.5625 156.274 83.7292 158.883 84.0504L158.883 41.4023 143.154 41.4023 143.154 84.0504C145.764 83.7292 148.39 83.5621 151.019 83.5502Z" fill="#00883A" transform="matrix(1 0 0 1.00331 404 127)"/><path d="M203.787 109.16 233.946 79.0045 222.826 67.8871 192.651 98.0588C196.78 101.315 200.518 105.041 203.787 109.16Z" fill="#00883A" transform="matrix(1 0 0 1.00331 404 127)"/><path d="M109.387 98.0588 79.2152 67.8871 68.0947 79.0076 98.2507 109.16C101.52 105.041 105.257 101.315 109.387 98.0588Z" fill="#00883A" transform="matrix(1 0 0 1.00331 404 127)"/><path d="M192.767 203.686 222.826 233.735 233.946 222.612 203.875 192.541C200.617 196.674 196.889 200.414 192.767 203.686Z" fill="#00883A" transform="matrix(1 0 0 1.00331 404 127)"/><path d="M217.868 142.95C218.545 148.17 218.556 153.456 217.899 158.679L260.431 158.679 260.431 142.95Z" fill="#00883A" transform="matrix(1 0 0 1.00331 404 127)"/><path d="M151.019 218.283C148.39 218.27 145.764 218.102 143.154 217.783L143.154 260.226 158.883 260.226 158.883 217.783C156.274 218.102 153.648 218.269 151.019 218.283Z" fill="#00883A" transform="matrix(1 0 0 1.00331 404 127)"/><path d="M98.15 192.55 68.0821 222.618 79.2152 233.735 109.267 203.683C105.144 200.414 101.413 196.678 98.15 192.55Z" fill="#00883A" transform="matrix(1 0 0 1.00331 404 127)"/><path d="M205.8 150.915C205.8 181.17 181.274 205.697 151.019 205.697 120.764 205.697 96.2373 181.17 96.2373 150.915 96.2373 120.66 120.764 96.1335 151.019 96.1335 181.274 96.1335 205.8 120.66 205.8 150.915Z" fill="#00883A" transform="matrix(1 0 0 1.00331 404 127)"/></g></g></g><g><g><g><path d="M62.9167 155.09 62.9167 191.896C62.9167 209.198 102.24 226.5 151 226.5 199.76 226.5 239.083 209.198 239.083 191.896L239.083 155.09 151 186.233 62.9167 155.09Z" fill="#00883A" transform="matrix(1.00331 0 0 1 564 305)"/><path d="M151 172.706 288.158 124.575 151 75.5 13.8417 124.575 31.4583 130.867 31.4583 188.75C31.4583 192.21 34.2896 195.042 37.75 195.042 41.2104 195.042 44.0417 192.21 44.0417 188.75L44.0417 135.271 151 172.706Z" fill="#00883A" transform="matrix(1.00331 0 0 1 564 305)"/></g></g></g></g></svg>
